public/static/assets/mongo.svg

<svg xmlns="http://www.w3.org/2000/svg" viewBox="0 0 420 420"><g stroke-width="2" fill="none" stroke="#9ca3af"><path vector-effect="non-scaling-stroke" d="M199.42 296.05c3.59 11.61 4.41 23.27 4.85 35.41a.77.77 0 0 0 .52.7l6.43 2.2a1 1 0 0 0 1.33-1c-.71-11.98-2.2-29.62 4.63-39.91m0 0c53.85-40.63 72.56-110.3 50.81-173.32-7.93-22.99-18.83-43.86-34.59-62.55q-4.4-5.21-14.8-16.11c-5.57-5.85-8.94-12.36-12.14-19.47"/><path vector-effect="non-scaling-stroke" d="m206.46 22-2.34-4.85q-.24-.5-.26.06-.4 9.05-6.42 14.21c-43.05 36.85-64.84 89.68-63.25 145.6 1.32 46.56 28.03 90.11 64.39 118.03q.08.06.52.66.12.16.32.34"/><path vector-effect="non-scaling-stroke" d="M206.46 22c-1-.24-1.38-.1-1.28.96 1.26 14.12 1.7 28.37 1.88 42.54.44 35.83.83 71.68 1.14 107.5.27 31.95-.14 52.38-2.02 87.96m0 0q-2.05 14.02-4.2 28.04-.63 4.09-2.56 7.05m17.76-2.6q-6.13-4.92-7.93-12.7-2.5-10.83-3.07-19.79"/></g><path fill="#9ca3af" d="M206.46 22c-1-.24-1.38-.1-1.28.96 1.26 14.12 1.7 28.37 1.88 42.54.44 35.83.83 71.68 1.14 107.5.27 31.95-.14 52.38-2.02 87.96q-2.05 14.02-4.2 28.04-.63 4.09-2.56 7.05-.2-.18-.32-.34-.44-.6-.52-.66c-36.36-27.92-63.07-71.47-64.39-118.03-1.59-55.92 20.2-108.75 63.25-145.6q6.02-5.16 6.42-14.21.02-.56.26-.06l2.34 4.85Z"/><path fill="#9ca3af" d="M206.46 22c3.2 7.11 6.57 13.62 12.14 19.47q10.4 10.9 14.8 16.11c15.76 18.69 26.66 39.56 34.59 62.55 21.75 63.02 3.04 132.69-50.81 173.32q-6.13-4.92-7.93-12.7-2.5-10.83-3.07-19.79c1.88-35.58 2.29-56.01 2.02-87.96-.31-35.82-.7-71.67-1.14-107.5-.18-14.17-.62-28.42-1.88-42.54-.1-1.06.28-1.2 1.28-.96Z"/></svg>

<?xml version="1.0" encoding="UTF-8" standalone="no"?>
<!DOCTYPE svg PUBLIC "-//W3C//DTD SVG 1.1//EN" "http://www.w3.org/Graphics/SVG/1.1/DTD/svg11.dtd">
<svg xmlns="http://www.w3.org/2000/svg" version="1.1" viewBox="0 0 420 420">
<g stroke-width="2.00" fill="none" stroke-linecap="butt">
<path stroke="#9ca3af" vector-effect="non-scaling-stroke" d="
  M 199.42 296.05
  C 203.01 307.66 203.83 319.32 204.27 331.46
  A 0.77 0.77 0.0 0 0 204.79 332.16
  L 211.22 334.36
  A 1.00 1.00 0.0 0 0 212.55 333.36
  C 211.84 321.38 210.35 303.74 217.18 293.45"
/>
<path stroke="#9ca3af" vector-effect="non-scaling-stroke" d="
  M 217.18 293.45
  C 271.03 252.82 289.74 183.15 267.99 120.13
  C 260.06 97.14 249.16 76.27 233.40 57.58
  Q 229.00 52.37 218.60 41.47
  C 213.03 35.62 209.66 29.11 206.46 22.00"
/>
<path stroke="#9ca3af" vector-effect="non-scaling-stroke" d="
  M 206.46 22.00
  L 204.12 17.15
  Q 203.88 16.65 203.86 17.21
  Q 203.46 26.26 197.44 31.42
  C 154.39 68.27 132.60 121.10 134.19 177.02
  C 135.51 223.58 162.22 267.13 198.58 295.05
  Q 198.66 295.11 199.10 295.71
  Q 199.22 295.87 199.42 296.05"
/>
<path stroke="#9ca3af" vector-effect="non-scaling-stroke" d="
  M 206.46 22.00
  C 205.46 21.76 205.08 21.90 205.18 22.96
  C 206.44 37.08 206.88 51.33 207.06 65.50
  C 207.50 101.33 207.89 137.18 208.20 173.00
  C 208.47 204.95 208.06 225.38 206.18 260.96"
/>
<path stroke="#9ca3af" vector-effect="non-scaling-stroke" d="
  M 206.18 260.96
  Q 204.13 274.98 201.98 289.00
  Q 201.35 293.09 199.42 296.05"
/>
<path stroke="#9ca3af" vector-effect="non-scaling-stroke" d="
  M 217.18 293.45
  Q 211.05 288.53 209.25 280.75
  Q 206.75 269.92 206.18 260.96"
/>
</g>

<path fill="#9ca3af" d="
  M 206.46 22.00
  C 205.46 21.76 205.08 21.90 205.18 22.96
  C 206.44 37.08 206.88 51.33 207.06 65.50
  C 207.50 101.33 207.89 137.18 208.20 173.00
  C 208.47 204.95 208.06 225.38 206.18 260.96
  Q 204.13 274.98 201.98 289.00
  Q 201.35 293.09 199.42 296.05
  Q 199.22 295.87 199.10 295.71
  Q 198.66 295.11 198.58 295.05
  C 162.22 267.13 135.51 223.58 134.19 177.02
  C 132.60 121.10 154.39 68.27 197.44 31.42
  Q 203.46 26.26 203.86 17.21
  Q 203.88 16.65 204.12 17.15
  L 206.46 22.00
  Z"
/>
<path fill="#9ca3af" d="
  M 206.46 22.00
  C 209.66 29.11 213.03 35.62 218.60 41.47
  Q 229.00 52.37 233.40 57.58
  C 249.16 76.27 260.06 97.14 267.99 120.13
  C 289.74 183.15 271.03 252.82 217.18 293.45
  Q 211.05 288.53 209.25 280.75
  Q 206.75 269.92 206.18 260.96
  C 208.06 225.38 208.47 204.95 208.20 173.00
  C 207.89 137.18 207.50 101.33 207.06 65.50
  C 206.88 51.33 206.44 37.08 205.18 22.96
  C 205.08 21.90 205.46 21.76 206.46 22.00
  Z"
/>
</svg>
